tools/download-figma-icons/icons/outlined-large/wave.svg

<svg width="64" height="64" viewBox="0 0 64 64" fill="none" xmlns="http://www.w3.org/2000/svg">
<path d="M57.1499 23.3199C56.2299 22.7499 55.1999 22.4699 54.1599 22.4499L55.0599 21.0399C56.7999 18.2199 55.9299 14.5199 53.1099 12.7799C52.1899 12.2099 51.1599 11.9099 50.0999 11.8899C51.6199 9.10986 50.7199 5.58986 47.9899 3.90986C46.6299 3.05986 45.0099 2.79986 43.4499 3.16986C41.8899 3.53986 40.5599 4.48986 39.7099 5.86986L38.8799 7.23986C38.3999 6.31986 37.6799 5.50986 36.7299 4.92986C33.9199 3.18986 30.2099 4.05986 28.4699 6.85986L17.9499 23.4899C17.5399 24.1599 17.2499 24.5199 17.1099 24.5699C17.1099 24.5699 16.9799 24.5699 16.6599 24.3899C15.0799 23.4499 14.8999 19.9999 14.9599 18.8299C15.0499 15.9299 14.2199 13.7499 12.4999 12.3599C9.59988 10.0199 5.32988 11.0299 5.14988 11.0699C4.46988 11.2399 3.99988 11.8399 3.99988 12.5299V37.4999C3.98988 38.0099 3.74988 49.9799 14.7199 56.8299C19.0799 59.5499 24.1799 60.9999 29.0999 60.9999C30.8999 60.9999 32.6799 60.8099 34.3799 60.4099C39.4599 59.2299 43.4899 56.4099 46.0499 52.2799L59.1099 31.5799C60.8499 28.7699 59.9799 25.0599 57.1599 23.3199H57.1499ZM56.5499 29.9899L43.4899 50.6899C41.3599 54.1399 37.9699 56.4899 33.6799 57.4899C28.0899 58.7899 21.5899 57.5999 16.2899 54.2899C6.83988 48.3699 6.98988 38.0299 6.99988 37.5499V13.8399C8.02988 13.7699 9.54988 13.8499 10.5999 14.6999C11.5499 15.4699 11.9999 16.8299 11.9499 18.6999C11.9099 19.3299 11.6999 24.9399 15.1199 26.9699C18.1999 28.7899 19.8699 26.0899 20.4899 25.0799L31.0399 8.44986C31.4599 7.76986 32.1299 7.28986 32.9099 7.10986C33.6899 6.91986 34.4999 7.05986 35.1799 7.47986C36.5899 8.34986 37.0299 10.2099 36.1499 11.6099C36.0399 11.7899 35.9699 11.9799 35.9399 12.1699L27.1799 26.7599C26.7499 27.4699 26.9799 28.3899 27.6999 28.8199C28.4099 29.2499 29.3299 29.0199 29.7599 28.3099L42.2899 7.42986C43.1599 6.01986 45.0199 5.58986 46.4199 6.45986C47.8299 7.32986 48.2699 9.17986 47.3899 10.6099L45.0699 14.4399C44.9999 14.5399 44.9099 14.6199 44.8499 14.7299C44.7899 14.8299 44.7399 14.9399 44.7099 15.0399L35.1899 30.7699C34.7599 31.4799 34.9899 32.3999 35.6999 32.8299C35.9399 32.9799 36.2099 33.0499 36.4799 33.0499C36.9899 33.0499 37.4799 32.7899 37.7699 32.3299L47.6399 16.0199C48.0599 15.4999 48.6199 15.1299 49.2799 14.9699C50.0599 14.7899 50.8699 14.9199 51.5499 15.3399C52.9599 16.2099 53.3999 18.0599 52.5399 19.4499L48.7999 25.3099L40.2399 38.7499C39.7899 39.4499 39.9999 40.3799 40.6999 40.8199C40.9499 40.9799 41.2299 41.0599 41.5099 41.0599C42.0099 41.0599 42.4899 40.8099 42.7799 40.3699L51.3699 26.8999C52.2499 25.4699 54.1899 25.0099 55.6099 25.8799C57.0199 26.7499 57.4599 28.6099 56.5899 29.9999L56.5499 29.9899Z" fill="black"/>
</svg>

<svg width="64" height="64" viewBox="0 0 64 64" fill="none" xmlns="http://www.w3.org/2000/svg"><path d="M57.15 23.32a5.86 5.86 0 0 0-2.99-.87l.9-1.41c1.74-2.82.87-6.52-1.95-8.26-.92-.57-1.95-.87-3.01-.89 1.52-2.78.62-6.3-2.11-7.98a5.937 5.937 0 0 0-4.54-.74 5.977 5.977 0 0 0-3.74 2.7l-.83 1.37c-.48-.92-1.2-1.73-2.15-2.31-2.81-1.74-6.52-.87-8.26 1.93L17.95 23.49c-.41.67-.7 1.03-.84 1.08 0 0-.13 0-.45-.18-1.58-.94-1.76-4.39-1.7-5.56.09-2.9-.74-5.08-2.46-6.47-2.9-2.34-7.17-1.33-7.35-1.29-.68.17-1.15.77-1.15 1.46V37.5c-.01.51-.25 12.48 10.72 19.33C19.08 59.55 24.18 61 29.1 61c1.8 0 3.58-.19 5.28-.59 5.08-1.18 9.11-4 11.67-8.13l13.06-20.7c1.74-2.81.87-6.52-1.95-8.26h-.01Zm-.6 6.67-13.06 20.7c-2.13 3.45-5.52 5.8-9.81 6.8-5.59 1.3-12.09.11-17.39-3.2C6.84 48.37 6.99 38.03 7 37.55V13.84c1.03-.07 2.55.01 3.6.86.95.77 1.4 2.13 1.35 4-.04.63-.25 6.24 3.17 8.27 3.08 1.82 4.75-.88 5.37-1.89L31.04 8.45c.42-.68 1.09-1.16 1.87-1.34.78-.19 1.59-.05 2.27.37 1.41.87 1.85 2.73.97 4.13-.11.18-.18.37-.21.56l-8.76 14.59c-.43.71-.2 1.63.52 2.06.71.43 1.63.2 2.06-.51L42.29 7.43a3.002 3.002 0 0 1 4.13-.97 3.01 3.01 0 0 1 .97 4.15l-2.32 3.83c-.07.1-.16.18-.22.29-.06.1-.11.21-.14.31l-9.52 15.73c-.43.71-.2 1.63.51 2.06.24.15.51.22.78.22.51 0 1-.26 1.29-.72l9.87-16.31c.42-.52.98-.89 1.64-1.05.78-.18 1.59-.05 2.27.37 1.41.87 1.85 2.72.99 4.11l-3.74 5.86-8.56 13.44c-.45.7-.24 1.63.46 2.07.25.16.53.24.81.24.5 0 .98-.25 1.27-.69l8.59-13.47c.88-1.43 2.82-1.89 4.24-1.02 1.41.87 1.85 2.73.98 4.12l-.04-.01Z" fill="currentColor"/></svg>
